lib/brands/icons/linkedin-alt.svg

<svg xmlns="http://www.w3.org/2000/svg" fill="none" aria-hidden="true" viewBox="0 0 48 48"><g id="linkedin-alt-Icon"><path id="Vector" fill="#2867B2" d="M39.4295 6H8.56437C7.15008 6 6.00098 7.16518 6.00098 8.59554V39.4045C6.00098 40.8348 7.15008 42 8.56437 42H39.4295C40.8438 42 42.001 40.8348 42.001 39.4045V8.59554C42.001 7.16518 40.8438 6 39.4295 6ZM16.8813 36.8571H11.5456V19.6768H16.8894V36.8571H16.8813ZM14.2135 17.3304C12.5019 17.3304 11.1197 15.9402 11.1197 14.2366C11.1197 12.533 12.5019 11.1429 14.2135 11.1429C15.917 11.1429 17.3072 12.533 17.3072 14.2366C17.3072 15.9482 15.9251 17.3304 14.2135 17.3304V17.3304ZM36.8822 36.8571H31.5465V28.5C31.5465 26.5071 31.5063 23.9438 28.7742 23.9438C25.9938 23.9438 25.5679 26.1134 25.5679 28.3554V36.8571H20.2322V19.6768H25.351V22.0232H25.4233C26.1385 20.6732 27.8822 19.2509 30.4778 19.2509C35.8778 19.2509 36.8822 22.8107 36.8822 27.4393V36.8571V36.8571Z"/></g></svg>

<svg xmlns="http://www.w3.org/2000/svg" fill="none" aria-hidden="true" viewBox="0 0 48 48"><path fill="#2867B2" d="M39.43 6H8.563C7.15 6 6.001 7.165 6.001 8.596v30.808c0 1.43 1.15 2.596 2.563 2.596H39.43c1.415 0 2.572-1.165 2.572-2.596V8.596C42.002 7.166 40.845 6 39.43 6ZM16.88 36.857h-5.335v-17.18h5.343v17.18h-.008ZM14.213 17.33a3.095 3.095 0 0 1-3.093-3.093 3.095 3.095 0 0 1 3.094-3.094 3.1 3.1 0 0 1 3.093 3.094 3.09 3.09 0 0 1-3.093 3.093Zm22.67 19.527h-5.337V28.5c0-1.993-.04-4.556-2.772-4.556-2.78 0-3.206 2.17-3.206 4.411v8.502h-5.336v-17.18h5.119v2.346h.072c.716-1.35 2.46-2.772 5.055-2.772 5.4 0 6.404 3.56 6.404 8.188v9.418Z"/></svg>
